frontend/public/svg/misc/rocket.svg

<svg width="154" height="155" viewBox="0 0 154 155" fill="none" xmlns="http://www.w3.org/2000/svg">
<path d="M106.407 96.8913C111.542 102.976 114.23 109.624 114.119 117.272C113.966 127.809 108.553 135.741 100.947 142.254C92.0832 149.843 81.3711 153.044 69.9069 153.943C67.396 154.087 64.8793 154.095 62.3675 153.968C61.2825 153.947 60.2075 153.756 59.1817 153.401C55.071 151.912 54.4462 148.867 57.7062 146.002C60.9065 143.191 64.3602 140.658 67.443 137.729C69.8054 135.468 71.9448 132.984 73.8318 130.313C75.8297 127.501 76.0056 124.257 74.7671 120.518C72.7928 121.437 70.9019 122.169 69.1639 123.165C65.5199 125.253 63.4643 125.166 60.3381 122.422C57.3006 119.755 54.3156 117.028 51.2938 114.343C50.8442 113.992 50.3743 113.668 49.8866 113.373C48.0535 115.067 46.3496 116.757 44.523 118.301C42.1025 120.348 39.7016 120.401 38.131 118.589C36.6588 116.893 36.901 114.651 39.0282 112.471C40.5377 110.923 42.2626 109.584 43.5372 108.461C40.1098 104.278 36.6555 100.848 34.1719 96.8237C31.2696 92.1178 34.8565 87.9231 37.0979 83.3189C32.8192 83.0504 29.3006 83.8341 26.4724 86.0033C23.7734 88.1917 21.3394 90.6881 19.2199 93.4416C17.1669 95.975 15.57 98.8767 13.7474 101.599C12.0291 104.166 10.2688 106.864 6.65102 106.491C4.14644 106.233 0.654067 101.721 0.422379 98.33C-0.102691 90.599 0.881819 83.0753 4.49168 76.0867C11.1049 63.2881 21.523 54.9657 35.0947 50.5131C40.7812 48.6478 46.5098 49.2418 52.3098 51.0087C52.6314 50.6385 53.0088 50.2697 53.3107 49.8476C68.9736 27.9581 90.3183 14.0634 115.597 5.81196C124.206 3.00217 132.916 0.444402 142.093 0.21009C144.385 0.151676 146.679 -0.0235928 148.97 0.00266074C151.958 0.036134 153.448 1.09614 153.327 4.01488C153.172 9.66322 152.644 15.2951 151.744 20.8736C148.056 41.8521 137.967 59.8443 124.863 76.254C119.763 82.6415 114.02 88.5177 108.563 94.621C107.918 95.3403 107.232 96.0243 106.407 96.8913ZM55.4163 106.628C58.8292 109.34 61.3148 111.468 63.9867 113.323C64.4408 113.537 64.9369 113.646 65.4389 113.644C65.9408 113.641 66.4358 113.527 66.8877 113.308C71.1231 111.063 75.4543 108.915 79.3969 106.215C93.4392 96.5986 106.143 85.4257 116.822 72.1336C122.616 64.9224 127.917 57.3167 133.55 49.7426L100.91 19.4316C99.8323 19.9355 98.7827 20.4966 97.7652 21.1125C91.3987 25.3374 84.9081 29.3961 78.7602 33.9196C71.8687 38.9892 66.0371 45.1843 60.8311 52.0129C52.1969 63.3367 47.1136 76.5599 40.7248 89.0828C40.0895 90.3299 40.4459 92.8417 41.3464 93.9568C43.6901 96.8598 46.5925 99.3126 49.7416 102.406C54.6641 97.3035 58.9959 92.5352 63.6454 88.0938C66.324 85.689 69.196 83.5087 72.2323 81.575C73.8285 80.4907 75.8664 80.1212 77.3268 81.7864C78.8068 83.4745 77.5322 85.1277 76.4919 86.4844C75.2622 88.0169 73.9298 89.4642 72.504 90.8162C69.5505 93.7356 66.5904 96.6465 63.5476 99.4701C60.9951 101.843 58.3212 104.081 55.4163 106.628ZM147.141 6.3889C133.175 6.41712 120.848 11.6094 108.28 15.8349L108.056 16.7045L136.962 41.0731C141.915 33.2233 145.713 20.2816 147.141 6.3889ZM77.9707 141.64C89.7309 139.425 98.8422 133.46 103.962 122.528C107.375 115.232 104.991 108.423 100.968 101.949C94.1966 107.118 87.7199 112.064 81.2445 117.008C86.3449 126.009 83.7327 133.936 77.9707 141.64ZM48.698 56.4944C31.8839 53.7377 8.64104 76.4733 10.1486 92.0817C17.0146 81.239 25.8253 74.7064 39.084 77.0567L48.698 56.4944Z" fill="black"/>
<path d="M14.6051 140.579C15.1033 139.678 15.6382 138.038 16.7054 136.898C20.7301 132.601 24.9024 128.441 29.0774 124.288C30.3034 123.068 31.8543 122.299 33.4499 123.601C35.1327 124.974 34.3963 126.615 33.402 127.973C29.989 132.633 26.5682 137.293 22.9616 141.802C21.8888 143.034 20.5253 143.979 18.9947 144.55C16.7225 145.446 14.5257 143.644 14.6051 140.579Z" fill="black"/>
<path d="M51.9876 123.87C54.4075 123.936 56.1665 126.118 55.0901 127.808C52.3487 132.062 49.3371 136.136 46.074 140.004C44.905 141.404 42.8061 141.206 41.3214 139.866C40.6426 139.292 40.1985 138.488 40.0735 137.607C39.9485 136.727 40.1513 135.831 40.6434 135.09C41.5342 133.607 42.5933 132.232 43.7998 130.991C45.587 129.088 47.4753 127.273 49.4167 125.529C50.22 124.897 51.0807 124.342 51.9876 123.87Z" fill="black"/>
<path d="M30.3682 105.409C29.9062 106.43 29.3605 107.411 28.7366 108.341C25.689 112.145 22.5946 115.911 19.4534 119.638C18.8631 120.274 18.1765 120.813 17.4187 121.234C15.8501 122.199 14.2552 122.197 12.9904 120.769C11.6836 119.294 11.9737 117.656 13.2838 116.387C17.5723 112.23 21.91 108.121 26.3337 104.109C26.912 103.584 28.1433 103.499 28.9893 103.655C29.4973 103.749 29.8465 104.705 30.3682 105.409Z" fill="black"/>
<path d="M99.4671 35.7334C103.729 35.6749 107.015 37.4181 110.313 40.1649C113.732 43.0121 116.286 46.049 117.548 50.2935C120.461 60.111 114.697 67.338 105.35 68.6599C97.775 69.731 91.3495 66.6114 86.6757 60.6814C82.672 55.6 82.5638 49.6871 85.3407 44.0052C88.1407 38.2721 93.1846 35.7944 99.4671 35.7334ZM90.4707 51.4625C91.5654 53.3514 92.3511 55.7595 93.9821 57.2317C95.6715 58.7564 98.1281 59.5118 100.344 60.3545C103.255 61.4624 105.775 60.2889 107.753 58.2294C109.668 56.2374 109.739 53.7354 108.803 51.1869C107.329 47.1688 103.891 45.1524 100.438 43.3337C97.3373 41.7008 94.3949 42.6774 92.6274 45.7353C91.7262 47.2915 91.3232 49.1358 90.4707 51.4625Z" fill="black"/>
</svg>

<svg xmlns="http://www.w3.org/2000/svg" width="154" height="155" fill="none" viewBox="0 0 154 155"><path fill="#000" d="M106.407 96.891c5.135 6.085 7.823 12.733 7.712 20.381-.153 10.537-5.566 18.469-13.172 24.982-8.864 7.589-19.576 10.79-31.04 11.689a70 70 0 0 1-7.54.025 10.4 10.4 0 0 1-3.185-.567c-4.111-1.489-4.736-4.534-1.476-7.399 3.2-2.811 6.654-5.344 9.737-8.273a51 51 0 0 0 6.389-7.416c1.998-2.812 2.174-6.056.935-9.795-1.974.919-3.865 1.651-5.603 2.647-3.644 2.088-5.7 2.001-8.826-.743-3.037-2.667-6.022-5.394-9.044-8.079q-.676-.527-1.407-.97c-1.834 1.694-3.537 3.384-5.364 4.928-2.42 2.047-4.821 2.1-6.392.288-1.472-1.696-1.23-3.938.897-6.118 1.51-1.548 3.235-2.887 4.51-4.01-3.428-4.183-6.882-7.613-9.366-11.637-2.902-4.706.684-8.9 2.926-13.505-4.279-.269-7.797.515-10.626 2.684a44.6 44.6 0 0 0-7.252 7.439c-2.053 2.533-3.65 5.435-5.473 8.157-1.718 2.567-3.478 5.265-7.096 4.892-2.505-.258-5.997-4.77-6.229-8.161-.525-7.731.46-15.255 4.07-22.243 6.613-12.799 17.031-21.121 30.603-25.574 5.686-1.865 11.415-1.271 17.215.496.321-.37.699-.74 1-1.161 15.664-21.89 37.008-35.785 62.287-44.036 8.609-2.81 17.319-5.368 26.496-5.602 2.292-.058 4.586-.234 6.877-.207 2.988.033 4.478 1.093 4.357 4.012a128 128 0 0 1-1.583 16.859c-3.688 20.978-13.777 38.97-26.881 55.38-5.1 6.387-10.843 12.264-16.3 18.367-.645.72-1.331 1.403-2.156 2.27m-50.99 9.737c3.412 2.712 5.898 4.84 8.57 6.695a3.37 3.37 0 0 0 2.9-.015c4.236-2.245 8.567-4.393 12.51-7.093 14.042-9.616 26.746-20.79 37.425-34.081 5.794-7.212 11.095-14.817 16.728-22.391l-32.64-30.311a33 33 0 0 0-3.145 1.68C91.4 25.338 84.908 29.397 78.76 33.92c-6.891 5.07-12.723 11.264-17.929 18.093-8.634 11.324-13.717 24.547-20.106 37.07-.636 1.247-.28 3.759.621 4.874 2.344 2.903 5.247 5.356 8.396 8.449 4.922-5.103 9.254-9.87 13.903-14.312a65.6 65.6 0 0 1 8.587-6.519c1.597-1.084 3.634-1.454 5.095.211 1.48 1.689.205 3.342-.835 4.698a43 43 0 0 1-3.988 4.332c-2.954 2.92-5.914 5.83-8.956 8.654-2.553 2.373-5.227 4.611-8.132 7.158M147.14 6.388c-13.966.03-26.293 5.221-38.861 9.447l-.224.87 28.906 24.368c4.953-7.85 8.751-20.791 10.179-34.684M77.971 141.64c11.76-2.215 20.871-8.18 25.991-19.112 3.413-7.296 1.029-14.105-2.994-20.579l-19.723 15.059c5.1 9.001 2.488 16.928-3.274 24.632M48.698 56.494c-16.814-2.756-40.057 19.98-38.55 35.588 6.867-10.843 15.677-17.376 28.936-15.025z"/><path fill="#000" d="M14.605 140.579c.498-.901 1.033-2.541 2.1-3.681 4.025-4.297 8.197-8.457 12.372-12.61 1.226-1.22 2.777-1.989 4.373-.687 1.683 1.373.946 3.014-.048 4.372-3.413 4.66-6.834 9.32-10.44 13.829a9.8 9.8 0 0 1-3.967 2.748c-2.273.896-4.47-.906-4.39-3.971m37.383-16.709c2.42.066 4.179 2.248 3.102 3.938a118 118 0 0 1-9.016 12.196c-1.169 1.4-3.268 1.202-4.753-.138a3.625 3.625 0 0 1-.678-4.776 22.5 22.5 0 0 1 3.157-4.099 92 92 0 0 1 5.617-5.462 16.4 16.4 0 0 1 2.57-1.659m-21.619-18.461a20 20 0 0 1-1.631 2.932 588 588 0 0 1-9.284 11.297 8.2 8.2 0 0 1-2.034 1.596c-1.569.965-3.164.963-4.429-.465-1.306-1.475-1.016-3.113.294-4.382 4.288-4.157 8.626-8.266 13.05-12.278.578-.525 1.81-.61 2.655-.454.508.094.857 1.05 1.38 1.754m69.098-69.676c4.262-.058 7.548 1.685 10.846 4.432 3.419 2.847 5.973 5.884 7.235 10.129 2.913 9.817-2.851 17.044-12.198 18.366-7.575 1.071-14-2.049-18.674-7.979-4.004-5.081-4.112-10.994-1.335-16.676 2.8-5.733 7.844-8.21 14.126-8.272m-8.996 15.73c1.094 1.888 1.88 4.297 3.511 5.769 1.69 1.524 4.146 2.28 6.362 3.123 2.911 1.107 5.431-.066 7.409-2.126 1.915-1.992 1.986-4.494 1.05-7.042-1.474-4.018-4.912-6.035-8.365-7.853-3.1-1.633-6.043-.657-7.81 2.401-.902 1.556-1.305 3.4-2.157 5.727"/></svg>
